markup/dist/img/website-dev.svg

<svg id="Слой_1" data-name="Слой 1" xmlns="http://www.w3.org/2000/svg" viewBox="0 0 512 512"><defs><style>.cls-1{fill:#fff}.cls-2{fill:#c9dc7d}.cls-3{fill:#4d4d4f;stroke:#4d4d4f;stroke-miterlimit:10;stroke-width:4px}</style></defs><path class="cls-1" d="M289.56 333h-66.21c0 101.91-62.09 154.08-62.09 154.08h190.39S289.56 434.92 289.56 333z"/><path class="cls-2" d="M364.68 494.55H148.23a9.43 9.43 0 0 1-9.43-9.43 30.07 30.07 0 0 1 30.06-30.07h175.19a30.07 30.07 0 0 1 30.07 30.07 9.44 9.44 0 0 1-9.44 9.43z"/><path class="cls-1" d="M482.78 391.48H30.13a19.07 19.07 0 0 1-19.07-19.08V37.07A19.07 19.07 0 0 1 30.13 18h452.65a19.08 19.08 0 0 1 19.08 19.08V372.4a19.08 19.08 0 0 1-19.08 19.08z"/><path class="cls-2" d="M38.71 46.63h435.5V95.1H38.71zM11.06 336.46v36a19.07 19.07 0 0 0 19.07 19.07h452.65a19.07 19.07 0 0 0 19.08-19.07v-36z"/><path class="cls-3" d="M201.2 182.14c0-4.41-4.25-7.87-7.55-7.87a4.11 4.11 0 0 0-2.36.63L149.92 202a8.16 8.16 0 0 0-3.46 6.44 7.92 7.92 0 0 0 3.46 6.3l41.37 27.05a4.11 4.11 0 0 0 2.36.63c3.3 0 7.55-3.31 7.55-7.71a5.13 5.13 0 0 0-2.36-4.56l-33-21.71 33-21.7a5.52 5.52 0 0 0 2.36-4.6zm76.13-48.44l-57.88 115.6a6.18 6.18 0 0 0-.48 2.36 6.09 6.09 0 0 0 6.14 5.82 5.71 5.71 0 0 0 5.19-3L288 139.36a4.66 4.66 0 0 0 .63-2.52c0-3.62-3.46-6-6.6-6a4.78 4.78 0 0 0-4.7 2.86zm29.1 100.97a8 8 0 0 0 7.55 7.71 3.63 3.63 0 0 0 2.2-.63l41.36-27.05a7.48 7.48 0 0 0 3.46-6.29 8.14 8.14 0 0 0-3.46-6.45l-41.36-27.06a3.63 3.63 0 0 0-2.2-.63 8.17 8.17 0 0 0-7.55 7.87 5.8 5.8 0 0 0 2.2 4.56l33.19 21.71-33.19 21.7a5.37 5.37 0 0 0-2.2 4.56z"/><path class="cls-3" d="M482.78 10.59H30.13A26.51 26.51 0 0 0 3.65 37.07V372.4a26.51 26.51 0 0 0 26.48 26.48h176.14A204.6 204.6 0 0 1 184 447.65h-15.14a37.51 37.51 0 0 0-37.47 37.47A16.85 16.85 0 0 0 148.23 502h216.45a16.85 16.85 0 0 0 16.84-16.84 37.51 37.51 0 0 0-37.47-37.47h-15.13a204.57 204.57 0 0 1-22.27-48.77h176.13a26.51 26.51 0 0 0 26.48-26.48V37.07a26.51 26.51 0 0 0-26.48-26.48zM30.13 25.4h452.65a11.68 11.68 0 0 1 11.67 11.67v292h-476v-292A11.68 11.68 0 0 1 30.13 25.4zm336.58 459.72a2 2 0 0 1-2 2H148.23a2 2 0 0 1-2-2 22.69 22.69 0 0 1 22.66-22.66h175.16a22.69 22.69 0 0 1 22.66 22.66zm-55-37.47H201.26a221.16 221.16 0 0 0 20.46-48.76h69.48a220.68 220.68 0 0 0 20.46 48.76zm171.12-63.58H30.13a11.67 11.67 0 0 1-11.66-11.66v-28.55h476v28.55a11.67 11.67 0 0 1-11.69 11.66z"/><path class="cls-3" d="M38.71 314.24h435.5a7.4 7.4 0 0 0 7.4-7.41V191.54a7.41 7.41 0 0 0-14.81 0v107.89H46.11V191.54a7.41 7.41 0 0 0-14.81 0v115.29a7.41 7.41 0 0 0 7.41 7.41zm0-144.91a7.4 7.4 0 0 0 7.4-7.41v-59.41H466.8v59.41a7.41 7.41 0 1 0 14.81 0V46.63a7.4 7.4 0 0 0-7.4-7.4H38.71a7.4 7.4 0 0 0-7.41 7.4v115.29a7.41 7.41 0 0 0 7.41 7.41zM466.8 54v33.69H46.11V54z"/><path class="cls-1" d="M352.79 77.77a6.91 6.91 0 1 1 6.91-6.9 6.91 6.91 0 0 1-6.91 6.9zm37.83 0a6.91 6.91 0 1 1 6.91-6.9 6.91 6.91 0 0 1-6.91 6.9zm37.83 0a6.91 6.91 0 1 1 6.9-6.9 6.91 6.91 0 0 1-6.9 6.9z"/></svg>

<svg id="Слой_1" data-name="Слой 1" xmlns="http://www.w3.org/2000/svg" viewBox="0 0 512 512"><defs><style>.cls-1{fill:#fff;}.cls-2{fill:#c9dc7d;}.cls-3{fill:#4d4d4f;stroke:#4d4d4f;stroke-miterlimit:10;stroke-width:4px;}</style></defs><title>website-dev</title><path class="cls-1" d="M289.56,333H223.35c0,101.91-62.09,154.08-62.09,154.08H351.65S289.56,434.92,289.56,333Z"/><path class="cls-2" d="M364.68,494.55H148.23a9.43,9.43,0,0,1-9.43-9.43h0a30.07,30.07,0,0,1,30.06-30.07H344.05a30.07,30.07,0,0,1,30.07,30.07h0A9.44,9.44,0,0,1,364.68,494.55Z"/><path class="cls-1" d="M482.78,391.48H30.13A19.07,19.07,0,0,1,11.06,372.4V37.07A19.07,19.07,0,0,1,30.13,18H482.78a19.08,19.08,0,0,1,19.08,19.08V372.4A19.08,19.08,0,0,1,482.78,391.48Z"/><rect class="cls-2" x="38.71" y="46.63" width="435.5" height="48.47"/><path class="cls-2" d="M11.06,336.46v36a19.07,19.07,0,0,0,19.07,19.07H482.78a19.07,19.07,0,0,0,19.08-19.07v-36Z"/><path class="cls-3" d="M201.2,182.14c0-4.41-4.25-7.87-7.55-7.87a4.11,4.11,0,0,0-2.36.63L149.92,202a8.16,8.16,0,0,0-3.46,6.44,7.92,7.92,0,0,0,3.46,6.3l41.37,27.05a4.11,4.11,0,0,0,2.36.63c3.3,0,7.55-3.31,7.55-7.71a5.13,5.13,0,0,0-2.36-4.56l-33-21.71,33-21.7A5.52,5.52,0,0,0,201.2,182.14Z"/><path class="cls-3" d="M277.33,133.7,219.45,249.3a6.18,6.18,0,0,0-.48,2.36,6.09,6.09,0,0,0,6.14,5.82,5.71,5.71,0,0,0,5.19-3L288,139.36a4.66,4.66,0,0,0,.63-2.52c0-3.62-3.46-6-6.6-6A4.78,4.78,0,0,0,277.33,133.7Z"/><path class="cls-3" d="M306.43,234.67a8,8,0,0,0,7.55,7.71,3.63,3.63,0,0,0,2.2-.63l41.36-27.05a7.48,7.48,0,0,0,3.46-6.29,8.14,8.14,0,0,0-3.46-6.45L316.18,174.9a3.63,3.63,0,0,0-2.2-.63,8.17,8.17,0,0,0-7.55,7.87,5.8,5.8,0,0,0,2.2,4.56l33.19,21.71-33.19,21.7A5.37,5.37,0,0,0,306.43,234.67Z"/><path class="cls-3" d="M482.78,10.59H30.13A26.51,26.51,0,0,0,3.65,37.07V372.4a26.51,26.51,0,0,0,26.48,26.48H206.27A204.6,204.6,0,0,1,184,447.65H168.86a37.51,37.51,0,0,0-37.47,37.47A16.85,16.85,0,0,0,148.23,502H364.68a16.85,16.85,0,0,0,16.84-16.84,37.51,37.51,0,0,0-37.47-37.47H328.92a204.57,204.57,0,0,1-22.27-48.77H482.78a26.51,26.51,0,0,0,26.48-26.48V37.07A26.51,26.51,0,0,0,482.78,10.59ZM30.13,25.4H482.78a11.68,11.68,0,0,1,11.67,11.67v292h-476v-292A11.68,11.68,0,0,1,30.13,25.4ZM366.71,485.12a2,2,0,0,1-2,2H148.23a2,2,0,0,1-2-2,22.69,22.69,0,0,1,22.66-22.66H344.05A22.69,22.69,0,0,1,366.71,485.12Zm-55-37.47H201.26a221.16,221.16,0,0,0,20.46-48.76H291.2A220.68,220.68,0,0,0,311.66,447.65Zm171.12-63.58H30.13a11.67,11.67,0,0,1-11.66-11.66V343.86h476v28.55A11.67,11.67,0,0,1,482.78,384.07Z"/><path class="cls-3" d="M38.71,314.24h435.5a7.4,7.4,0,0,0,7.4-7.41V191.54a7.41,7.41,0,0,0-14.81,0V299.43H46.11V191.54a7.41,7.41,0,0,0-14.81,0V306.83A7.41,7.41,0,0,0,38.71,314.24Z"/><path class="cls-3" d="M38.71,169.33a7.4,7.4,0,0,0,7.4-7.41V102.51H466.8v59.41a7.41,7.41,0,1,0,14.81,0V46.63a7.4,7.4,0,0,0-7.4-7.4H38.71a7.4,7.4,0,0,0-7.41,7.4V161.92A7.41,7.41,0,0,0,38.71,169.33ZM466.8,54V87.69H46.11V54Z"/><path class="cls-1" d="M352.79,77.77a6.91,6.91,0,1,1,6.91-6.9A6.91,6.91,0,0,1,352.79,77.77Z"/><path class="cls-1" d="M390.62,77.77a6.91,6.91,0,1,1,6.91-6.9A6.91,6.91,0,0,1,390.62,77.77Z"/><path class="cls-1" d="M428.45,77.77a6.91,6.91,0,1,1,6.9-6.9A6.91,6.91,0,0,1,428.45,77.77Z"/></svg>
